images/icons/roof.svg

<svg height="32pt" viewBox="0 0 32 32" width="32pt" xmlns="http://www.w3.org/2000/svg"><path d="m32 24.300781c0-.011719 0-.019531-.003906-.027343 0-.003907 0-.011719 0-.015626-.003906-.011718-.003906-.019531-.003906-.03125 0-.003906 0-.007812-.003907-.011718 0-.015625-.003906-.03125-.007812-.042969l-4.667969-18.667969c-.074219-.296875-.339844-.503906-.648438-.503906h-21.332031c-.304687 0-.570312.207031-.644531.503906l-4.6679688 18.667969c-.0039062.011719-.0039062.027344-.0078124.042969-.0039063.003906-.0039063.007812-.0039063.015625 0 .007812 0 .015625-.00390625.027343v.015626c0 .007812-.00390625.015624-.00390625.027343v.015625.015625 2c0 .214844.105469.417969.28125.542969s.402344.160156.605469.085938l3.597656-1.253907 3.628906 1.253907c.140625.050781.296875.050781.4375 0l3.613281-1.253907 3.617188 1.253907c.140625.050781.296875.050781.4375 0l3.613281-1.253907 3.613281 1.253907c.144532.050781.296876.050781.4375 0l3.617188-1.253907 3.613281 1.253907c.070313.027343.144531.039062.21875.039062.136719 0 .273438-.042969.386719-.125.175781-.125.28125-.328125.28125-.542969v-2c0-.003906 0-.007812 0-.015625 0-.003906 0-.011718 0-.015625zm-1.613281-1.003906-2.667969-.925781c-.140625-.050782-.296875-.050782-.4375 0l-3.054688 1.0625-.664062-5.3125 2.722656-.941406 2.820313.996093zm-2.78125-11.117187 1.113281 4.445312-2.207031-.78125c-.144531-.050781-.300781-.050781-.441407 0l-2.679687.925781-.578125-4.652343 2.285156-.800782zm-1.460938-5.847657 1.078125 4.304688-1.910156-.65625c-.144531-.046875-.296875-.046875-.4375.003906l-2.234375.78125-.554687-4.433594zm-9.476562 0h4.078125l.542968 4.355469-2.039062-.707031c-.140625-.046875-.296875-.046875-.4375.003906l-2.144531.746094zm-.003907 5.808594 2.367188-.824219 2.441406.84375.566406 4.519532-2.390624-.835938c-.140626-.050781-.296876-.050781-.4375 0l-2.546876.886719zm0 6 2.765626-.960937 2.792968.976562.648438 5.195312-2.816406-.980468c-.144532-.050782-.296876-.050782-.441407 0l-2.949219 1.023437zm-5.410156-11.808594h4.078125v4.398438l-2.144531-.746094c-.140625-.050781-.296875-.050781-.4375-.003906l-2.039062.707031zm4.078125 11.808594v5.253906l-2.945312-1.023437c-.140625-.050782-.296875-.050782-.4375 0l-2.820313.980468.648438-5.191406 2.792968-.980468zm-4.804687-5.980469 2.441406-.84375 2.363281.824219v4.589844l-2.542969-.886719c-.144531-.050781-.296874-.050781-.441406 0l-2.386718.835938zm-4.671875-5.828125h4.054687l-.550781 4.433594-2.230469-.78125c-.144531-.050781-.296875-.050781-.4375-.003906l-1.914062.65625zm-1.460938 5.847657 2.511719-.863282 2.28125.800782-.578125 4.652343-2.679687-.925781c-.144532-.050781-.296876-.050781-.441407 0l-2.207031.78125zm-1.5 5.996093 2.820313-.996093 2.722656.941406-.664062 5.3125-3.070313-1.0625c-.070313-.027344-.144531-.039063-.21875-.039063s-.148437.011719-.21875.039063l-2.652344.925781zm27.769531 7.21875-2.945312-1.023437c-.140625-.050782-.296875-.050782-.4375 0l-3.617188 1.253906-3.609374-1.253906c-.144532-.050782-.296876-.050782-.441407 0l-3.613281 1.253906-3.613281-1.253906c-.140625-.050782-.296875-.050782-.4375 0l-3.617188 1.257812-3.628906-1.257812c-.070313-.027344-.144531-.039063-.21875-.039063s-.148437.011719-.21875.039063l-2.933594 1.023437v-.589843l3.152344-1.097657 3.632813 1.253907v.003906c.007812 0 .011718.003906.019531.003906.011719.003906.027343.007812.039062.011719.007813 0 .015625.003906.023438.003906.011719.003906.027343.007813.039062.007813.003907 0 .007813 0 .011719.003906h.019531.015625c.015625.003906.03125.003906.050782.003906.007812 0 .019531 0 .03125-.003906h.023437c.011719 0 .023437-.003906.035156-.003906.007813 0 .015625 0 .023438-.003907.011719 0 .023437-.003906.035156-.007812.007813 0 .011719 0 .019531-.003907.011719-.003906.023438-.007812.035156-.007812.003907-.003906.007813-.003906.015626-.007812l3.609374-1.253907 3.617188 1.253907c0 .003906.003906.003906.007812.003906.011719.003906.019532.007812.027344.007812.011719.003906.023438.007813.03125.007813.011719.003906.019532.003906.03125.007812.011719 0 .023438.003907.035156.007813h.023438c.023438.003906.042969.003906.0625.003906s.042969 0 .0625-.003906h.023438c.011718-.003906.023437-.003906.035156-.007813.011718 0 .019531-.003906.03125-.007812.007812 0 .015625-.003907.027344-.007813.011718 0 .019531-.003906.03125-.007812.003906 0 .003906 0 .007812-.003906l3.613281-1.253907 3.613281 1.253907c.007813.003906.011719.003906.015626.007812.011718 0 .023437.003906.035156.007812.007812.003907.011718.003907.019531.003907.015625.003906.023437.007812.035156.007812.007813.003907.015625.003907.023438.003907.011719.003906.023437.003906.035156.003906.007813 0 .019531 0 .03125.003906h.023437c.019532 0 .035157 0 .050782-.003906h.015625.019531c.003906-.003906.003906-.003906.007812-.003906.015626 0 .03125-.003907.042969-.007813.007813 0 .015625-.003906.023438-.003906.011719-.003907.027343-.007813.039062-.011719.007813 0 .011719-.003906.019531-.007812l3.617188-1.253907 3.164062 1.101563zm0 0" fill="#fff"/></svg>

<?xml version="1.0" encoding="UTF-8"?>
<svg xmlns="http://www.w3.org/2000/svg" xmlns:xlink="http://www.w3.org/1999/xlink" width="32pt" height="32pt" viewBox="0 0 32 32" version="1.1">
<g id="surface1">
<path style=" stroke:none;fill-rule:nonzero;fill:rgb(255,255,255);fill-opacity:1;" d="M 32 24.300781 C 32 24.289062 32 24.28125 31.996094 24.273438 C 31.996094 24.269531 31.996094 24.261719 31.996094 24.257812 C 31.992188 24.246094 31.992188 24.238281 31.992188 24.226562 C 31.992188 24.222656 31.992188 24.21875 31.988281 24.214844 C 31.988281 24.199219 31.984375 24.183594 31.980469 24.171875 L 27.3125 5.503906 C 27.238281 5.207031 26.972656 5 26.664062 5 L 5.332031 5 C 5.027344 5 4.761719 5.207031 4.6875 5.503906 L 0.0195312 24.171875 C 0.015625 24.183594 0.015625 24.199219 0.0117188 24.214844 C 0.0078125 24.21875 0.0078125 24.222656 0.0078125 24.230469 C 0.0078125 24.238281 0.0078125 24.246094 0.00390625 24.257812 C 0.00390625 24.261719 0.00390625 24.269531 0.00390625 24.273438 C 0.00390625 24.28125 0 24.289062 0 24.300781 C 0 24.304688 0 24.3125 0 24.316406 C 0 24.324219 0 24.328125 0 24.332031 L 0 26.332031 C 0 26.546875 0.105469 26.75 0.28125 26.875 C 0.457031 27 0.683594 27.035156 0.886719 26.960938 L 4.484375 25.707031 L 8.113281 26.960938 C 8.253906 27.011719 8.410156 27.011719 8.550781 26.960938 L 12.164062 25.707031 L 15.78125 26.960938 C 15.921875 27.011719 16.078125 27.011719 16.21875 26.960938 L 19.832031 25.707031 L 23.445312 26.960938 C 23.589844 27.011719 23.742188 27.011719 23.882812 26.960938 L 27.5 25.707031 L 31.113281 26.960938 C 31.183594 26.988281 31.257812 27 31.332031 27 C 31.46875 27 31.605469 26.957031 31.71875 26.875 C 31.894531 26.75 32 26.546875 32 26.332031 L 32 24.332031 C 32 24.328125 32 24.324219 32 24.316406 C 32 24.3125 32 24.304688 32 24.300781 Z M 30.386719 23.296875 L 27.71875 22.371094 C 27.578125 22.320312 27.421875 22.320312 27.28125 22.371094 L 24.226562 23.433594 L 23.5625 18.121094 L 26.285156 17.179688 L 29.105469 18.175781 Z M 27.605469 12.179688 L 28.71875 16.625 L 26.511719 15.84375 C 26.367188 15.792969 26.210938 15.792969 26.070312 15.84375 L 23.390625 16.769531 L 22.8125 12.117188 L 25.097656 11.316406 Z M 26.144531 6.332031 L 27.222656 10.636719 L 25.3125 9.980469 C 25.167969 9.933594 25.015625 9.933594 24.875 9.984375 L 22.640625 10.765625 L 22.085938 6.332031 Z M 16.667969 6.332031 C 16.667969 6.332031 20.746094 6.332031 20.746094 6.332031 L 21.289062 10.6875 L 19.25 9.980469 C 19.109375 9.933594 18.953125 9.933594 18.8125 9.984375 L 16.667969 10.730469 Z M 16.664062 12.140625 L 19.03125 11.316406 L 21.472656 12.160156 L 22.039062 16.679688 L 19.648438 15.84375 C 19.507812 15.792969 19.351562 15.792969 19.210938 15.84375 L 16.664062 16.730469 Z M 16.664062 18.140625 L 19.429688 17.179688 L 22.222656 18.15625 L 22.871094 23.351562 L 20.054688 22.371094 C 19.910156 22.320312 19.757812 22.320312 19.613281 22.371094 L 16.664062 23.394531 Z M 11.253906 6.332031 L 15.332031 6.332031 L 15.332031 10.730469 L 13.1875 9.984375 C 13.046875 9.933594 12.890625 9.933594 12.75 9.980469 L 10.710938 10.6875 Z M 15.332031 18.140625 L 15.332031 23.394531 L 12.386719 22.371094 C 12.246094 22.320312 12.089844 22.320312 11.949219 22.371094 L 9.128906 23.351562 L 9.777344 18.160156 L 12.570312 17.179688 Z M 10.527344 12.160156 L 12.96875 11.316406 L 15.332031 12.140625 L 15.332031 16.730469 L 12.789062 15.84375 C 12.644531 15.792969 12.492188 15.792969 12.347656 15.84375 L 9.960938 16.679688 Z M 5.855469 6.332031 L 9.910156 6.332031 L 9.359375 10.765625 L 7.128906 9.984375 C 6.984375 9.933594 6.832031 9.933594 6.691406 9.980469 L 4.777344 10.636719 Z M 4.394531 12.179688 L 6.90625 11.316406 L 9.1875 12.117188 L 8.609375 16.769531 L 5.929688 15.84375 C 5.785156 15.792969 5.632812 15.792969 5.488281 15.84375 L 3.28125 16.625 Z M 2.894531 18.175781 L 5.714844 17.179688 L 8.4375 18.121094 L 7.773438 23.433594 L 4.703125 22.371094 C 4.632812 22.34375 4.558594 22.332031 4.484375 22.332031 C 4.410156 22.332031 4.335938 22.34375 4.265625 22.371094 L 1.613281 23.296875 Z M 30.664062 25.394531 L 27.71875 24.371094 C 27.578125 24.320312 27.421875 24.320312 27.28125 24.371094 L 23.664062 25.625 L 20.054688 24.371094 C 19.910156 24.320312 19.757812 24.320312 19.613281 24.371094 L 16 25.625 L 12.386719 24.371094 C 12.246094 24.320312 12.089844 24.320312 11.949219 24.371094 L 8.332031 25.628906 L 4.703125 24.371094 C 4.632812 24.34375 4.558594 24.332031 4.484375 24.332031 C 4.410156 24.332031 4.335938 24.34375 4.265625 24.371094 L 1.332031 25.394531 L 1.332031 24.804688 L 4.484375 23.707031 L 8.117188 24.960938 L 8.117188 24.964844 C 8.125 24.964844 8.128906 24.96875 8.136719 24.96875 C 8.148438 24.972656 8.164062 24.976562 8.175781 24.980469 C 8.183594 24.980469 8.191406 24.984375 8.199219 24.984375 C 8.210938 24.988281 8.226562 24.992188 8.238281 24.992188 C 8.242188 24.992188 8.246094 24.992188 8.25 24.996094 C 8.257812 24.996094 8.265625 24.996094 8.269531 24.996094 C 8.273438 24.996094 8.277344 24.996094 8.285156 24.996094 C 8.300781 25 8.316406 25 8.335938 25 C 8.34375 25 8.355469 25 8.367188 24.996094 C 8.375 24.996094 8.382812 24.996094 8.390625 24.996094 C 8.402344 24.996094 8.414062 24.992188 8.425781 24.992188 C 8.433594 24.992188 8.441406 24.992188 8.449219 24.988281 C 8.460938 24.988281 8.472656 24.984375 8.484375 24.980469 C 8.492188 24.980469 8.496094 24.980469 8.503906 24.976562 C 8.515625 24.972656 8.527344 24.96875 8.539062 24.96875 C 8.542969 24.964844 8.546875 24.964844 8.554688 24.960938 L 12.164062 23.707031 L 15.78125 24.960938 C 15.78125 24.964844 15.785156 24.964844 15.789062 24.964844 C 15.800781 24.96875 15.808594 24.972656 15.816406 24.972656 C 15.828125 24.976562 15.839844 24.980469 15.847656 24.980469 C 15.859375 24.984375 15.867188 24.984375 15.878906 24.988281 C 15.890625 24.988281 15.902344 24.992188 15.914062 24.996094 C 15.921875 24.996094 15.929688 24.996094 15.9375 24.996094 C 15.960938 25 15.980469 25 16 25 C 16.019531 25 16.042969 25 16.0625 24.996094 C 16.070312 24.996094 16.078125 24.996094 16.085938 24.996094 C 16.097656 24.992188 16.109375 24.992188 16.121094 24.988281 C 16.132812 24.988281 16.140625 24.984375 16.152344 24.980469 C 16.160156 24.980469 16.167969 24.976562 16.179688 24.972656 C 16.191406 24.972656 16.199219 24.96875 16.210938 24.964844 C 16.214844 24.964844 16.214844 24.964844 16.21875 24.960938 L 19.832031 23.707031 L 23.445312 24.960938 C 23.453125 24.964844 23.457031 24.964844 23.460938 24.96875 C 23.472656 24.96875 23.484375 24.972656 23.496094 24.976562 C 23.503906 24.980469 23.507812 24.980469 23.515625 24.980469 C 23.53125 24.984375 23.539062 24.988281 23.550781 24.988281 C 23.558594 24.992188 23.566406 24.992188 23.574219 24.992188 C 23.585938 24.996094 23.597656 24.996094 23.609375 24.996094 C 23.617188 24.996094 23.628906 24.996094 23.640625 25 C 23.648438 25 23.65625 25 23.664062 25 C 23.683594 25 23.699219 25 23.714844 24.996094 C 23.71875 24.996094 23.726562 24.996094 23.730469 24.996094 C 23.738281 24.996094 23.742188 24.996094 23.75 24.996094 C 23.753906 24.992188 23.753906 24.992188 23.757812 24.992188 C 23.773438 24.992188 23.789062 24.988281 23.800781 24.984375 C 23.808594 24.984375 23.816406 24.980469 23.824219 24.980469 C 23.835938 24.976562 23.851562 24.972656 23.863281 24.96875 C 23.871094 24.96875 23.875 24.964844 23.882812 24.960938 L 27.5 23.707031 L 30.664062 24.808594 Z M 30.664062 25.394531 "/>
</g>
</svg>
